icons/mail-send-fill.svg

<svg viewBox="0 0 24 24" fill="currentColor" xmlns="http://www.w3.org/2000/svg"><path d="M2 5.5V3.9934C2 3.44476 2.45531 3 2.9918 3H21.0082C21.556 3 22 3.44495 22 3.9934V20.0066C22 20.5552 21.5447 21 21.0082 21H2.9918C2.44405 21 2 20.5551 2 20.0066V19H20V7.3L12 14.5L2 5.5ZM0 10H5V12H0V10ZM0 15H8V17H0V15Z"/></svg>

<svg xmlns="http://www.w3.org/2000/svg" viewBox="0 0 24 24">
    <g>
        <path fill="none" d="M0 0h24v24H0z"/>
        <path d="M2 5.5V3.993A1 1 0 0 1 2.992 3h18.016c.548 0 .992.445.992.993v16.014a1 1 0 0 1-.992.993H2.992A.993.993 0 0 1 2 20.007V19h18V7.3l-8 7.2-10-9zM0 10h5v2H0v-2zm0 5h8v2H0v-2z"/>
    </g>
</svg>
